public/Icon_fish.svg

<svg width="128" height="128" viewBox="0 0 128 128" fill="none" xmlns="http://www.w3.org/2000/svg">
<path d="M42 22L44.252 27.5C45.656 30.92 47.564 39.468 47.124 43.5C41.672 46.86 38.328 50.14 35.748 52.876C32.596 50.328 26.36 46 16 46H12V50C12 57.656 14.764 63.876 15.752 66C14.752 68.108 12 74.108 12 82V86H16C26.28 86 32.592 81.656 35.752 79.124C40.484 84 47.232 89.14 55.752 93C55.376 95.484 55.08 98.952 56.124 103L56.876 106H60C64.936 106 69.188 103.548 72.624 101.376C75.436 99.592 76.796 98.344 77.5 97.748C93.408 97.188 103.564 88.608 109 80.124C114.624 71.36 116 62.624 116 62.624L116.124 61.624L115.752 60.624C115.752 60.624 106.592 35.468 81.752 34.248C79.112 31.048 75.42 28.392 70.252 26.248C64.14 23.72 56.452 22 48 22H42ZM53.624 30.5C58.672 31.06 63.392 32.08 67.124 33.624C72.236 35.736 75.796 38.764 76.624 40.124L77.752 42H80C99.984 42 107.172 60.92 107.752 62.5C107.472 63.968 106.312 69.548 102.252 75.876C97.608 83.108 90.092 90 76 90H74.5L73.376 91C73.376 91 71.264 92.8 68.376 94.624C66.856 95.58 65.564 95.752 64 96.376C64.16 94.548 64 91.876 64 91.876L64.876 88.376L61.624 87.248C51.72 83.468 43.296 76.344 39 71.376L36.248 68.124L33.248 71.124C33.248 71.124 27.92 74.86 21 76.624C22.032 71.936 23.624 67.752 23.624 67.752L24.5 66L23.624 64.248C23.624 64.248 21.892 59.656 20.876 54.748C28.248 56.376 33.248 60.876 33.248 60.876L36.248 63.876L39 60.624C42.58 56.58 52.22 46.5 66.376 44.624L65.248 36.748C61.42 37.252 58.08 38.36 54.876 39.628C54.672 36.268 54.5 33.376 53.624 30.5ZM90 58C88.4087 58 86.8826 58.6321 85.7574 59.7574C84.6321 60.8826 84 62.4087 84 64C84 65.5913 84.6321 67.1174 85.7574 68.2426C86.8826 69.3679 88.4087 70 90 70C91.5913 70 93.1174 69.3679 94.2426 68.2426C95.3679 67.1174 96 65.5913 96 64C96 62.4087 95.3679 60.8826 94.2426 59.7574C93.1174 58.6321 91.5913 58 90 58Z" fill="white"/>
</svg>

<svg xmlns="http://www.w3.org/2000/svg" width="128" height="128" fill="none"><path fill="#fff" d="m42 22 2.252 5.5c1.404 3.42 3.312 11.968 2.872 16-5.452 3.36-8.796 6.64-11.376 9.376C32.596 50.328 26.36 46 16 46h-4v4c0 7.656 2.764 13.876 3.752 16-1 2.108-3.752 8.108-3.752 16v4h4c10.28 0 16.592-4.344 19.752-6.876C40.484 84 47.232 89.14 55.752 93c-.376 2.484-.672 5.952.372 10l.752 3H60c4.936 0 9.188-2.452 12.624-4.624 2.812-1.784 4.172-3.032 4.876-3.628 15.908-.56 26.064-9.14 31.5-17.624 5.624-8.764 7-17.5 7-17.5l.124-1-.372-1s-9.16-25.156-34-26.376c-2.64-3.2-6.332-5.856-11.5-8C64.14 23.72 56.452 22 48 22h-6Zm11.624 8.5c5.048.56 9.768 1.58 13.5 3.124 5.112 2.112 8.672 5.14 9.5 6.5L77.752 42H80c19.984 0 27.172 18.92 27.752 20.5-.28 1.468-1.44 7.048-5.5 13.376C97.608 83.108 90.092 90 76 90h-1.5l-1.124 1s-2.112 1.8-5 3.624c-1.52.956-2.812 1.128-4.376 1.752.16-1.828 0-4.5 0-4.5l.876-3.5-3.252-1.128C51.72 83.468 43.296 76.344 39 71.376l-2.752-3.252-3 3S27.92 74.86 21 76.624c1.032-4.688 2.624-8.872 2.624-8.872L24.5 66l-.876-1.752s-1.732-4.592-2.748-9.5c7.372 1.628 12.372 6.128 12.372 6.128l3 3L39 60.624c3.58-4.044 13.22-14.124 27.376-16l-1.128-7.876c-3.828.504-7.168 1.612-10.372 2.88-.204-3.36-.376-6.252-1.252-9.128ZM90 58a6 6 0 1 0 0 12 6 6 0 0 0 0-12Z"/></svg>
